X:152
T:RVW2/2/152 It Was One Summer's Morning
C:Mr. and Mrs. Verrall, Horsham, Sussex, 8 October 1904
L:1/4
Q:1/4=120
M:4/4
I:linebreak $
K:G
"^(Editorial suggestion " G | G B d e | d B G3/2 G/ | c c B A | G3 G | G B d e |$ d B c d | 
e c e3/2 e/ | d3 d | B d d e | d3/2 B/ c d | e d c B |$ A3/2 B/ c A | d2 G3/2 F/ | 
E !fermata!D z B | B d d g | d B G B | c3/2 B/ B A | G3 |] 



